assets/icons/qvision/border_top.svg

<svg xmlns="http://www.w3.org/2000/svg" height="24" viewBox="0 0 24 24" width="24"><path d="M0 0h24v24H0z" fill="none"/><path d="M7 21h2v-2H7v2zm0-8h2v-2H7v2zm4 0h2v-2h-2v2zm0 8h2v-2h-2v2zm-8-4h2v-2H3v2zm0 4h2v-2H3v2zm0-8h2v-2H3v2zm0-4h2V7H3v2zm8 8h2v-2h-2v2zm8-8h2V7h-2v2zm0 4h2v-2h-2v2zM3 3v2h18V3H3zm16 14h2v-2h-2v2zm-4 4h2v-2h-2v2zM11 9h2V7h-2v2zm8 12h2v-2h-2v2zm-4-8h2v-2h-2v2z"/></svg>

<svg width="24" height="24" viewBox="0 0 24 24" fill="none" xmlns="http://www.w3.org/2000/svg">
<g clip-path="url(#clip0_147_2556)">
<path d="M7 21H9V19H7V21ZM7 13H9V11H7V13ZM11 13H13V11H11V13ZM11 21H13V19H11V21ZM3 17H5V15H3V17ZM3 21H5V19H3V21ZM3 13H5V11H3V13ZM3 9H5V7H3V9ZM11 17H13V15H11V17ZM19 9H21V7H19V9ZM19 13H21V11H19V13ZM3 3V5H21V3H3ZM19 17H21V15H19V17ZM15 21H17V19H15V21ZM11 9H13V7H11V9ZM19 21H21V19H19V21ZM15 13H17V11H15V13Z" fill="#323232"/>
</g>
<defs>
<clipPath id="clip0_147_2556">
<rect width="24" height="24" fill="white"/>
</clipPath>
</defs>
</svg>
